X:21004 
T:ABSENT-MINDED WOMAN (reel), The
B:DMI.772
Z:Nordberg/Black
R:reel
%Q:1/4=180
M:C|
L:1/8
K:G
G2GA BGBd|edgd edBA|G2GA BABd|egdB AGEF|
G2GA BGBd|edgd e2dB|dega bage|d2BG AGED||
g2bg agbg|g2bg aged|g2bg agbg|gedB AGED|
g2bg agbg|g2bg aged|bgaf gedB|cABG AGED||\
"final" HG4z4|]

%%%

